X:359
T: "Der wilde Ritter"
N: Z1039
O: Europa, Mitteleuropa, Deutschland, Rhein
R: Romanze, Ballade, Tod
M: 4/4
L: 1/8
K: A
F=G | A3AA2Bc | d2cBA2
Bc | d3BA=GFG | A4F2z
F | E2EFE2FG | A2GFE3
c | B3AG2AB | A2G2F2
A2 | G2EEF2G2 | A4A2

@@@ Tune index: 10117
